!! Orlando di Lasso, "Expandi manus meas te" 2-part polyphony, alla breve;
!! No. 2 from Laudate Pueri, 16th century, Tovey edition, p. 3
**kern	**kern
*M4/2	*M4/2
=1	=1
1g	0r
[1a	.
=2	=2
2a]	1r
2g	.
2f#	1dd
2g	.
=3	=3
4c	1.ee
4d	.
4e	.
4fn	.
2.g	.
.	2dd
4f	.
=4	=4
2e	2cc#
2d	2dd
1e	4g
.	4a
.	4b
.	4ccn
=5	=5
0d	2.dd
.	4cc
.	2b
.	2a
=6	=6
2r	1b
2.g	.
.	1a
4g	.
2f#	.
=7	=7
2.g	2r
.	2.dd
4a	.
2b-	.
.	4dd
2a	2cc#
=8	=8
2r	2.dd
2.d	.
.	4ee
.	2ff
4d	.
2c#	2ee
=9	=9
2.d	2r
.	2.a
4e	.
2f	.
.	4a
2e	2g#
=10	=10
2r	2.a
2d	.
.	4b
2e	2cc
[2g	2b
=11	=11
2g]	1dd
2f	.
2.e	2ee
.	[2gg
4f	.
=12	=12
2g	2gg]
2.a	2ff
.	1ee
4b	.
2cc	.
=13	=13
2a	2ff
2b-	2.dd
1g	.
.	4cc
.	4dd
.	4ee
=14	=14
2d	1ff
1a	.
.	2ee
2d	[2ff
=15	=15
1f	4ff]
.	4ee
.	4dd
.	4cc
2g	4ee
.	4dd
[2a	4cc
.	4bb
=16	=16
4a]	4cc
4g	4b
1g	4a
.	4g
.	1a
2f#	.
=17	=17
0g;	0g;
==	==
*-	*-
